X:1
T:Cantec de catanie
T:Cântec de cătănie
L:1/8
M:2/4
K:D
V:1 treble+8 nm="Recorder" snm="Rec."
V:1
 ff fd | ee ed/c/ | Ac Pe2 | d4 | ff fd | ee ed/c/ |{/^d} e{/e}=d c2 | PB4 :: F2 B2 | PB3 d | %10
 c2 B2 | PA3 d | c2 B2 | PA3 G | E2 G2 | F4 :| %16

